apps/trade/public/tokens/fil.svg

<svg width="24" height="25" viewBox="0 0 24 25" fill="none" xmlns="http://www.w3.org/2000/svg">
<g clip-path="url(#clip0_972_14705)">
<mask id="mask0_972_14705" style="mask-type:luminance" maskUnits="userSpaceOnUse" x="0" y="0" width="24" height="25">
<path fill-rule="evenodd" clip-rule="evenodd" d="M0 0.5H24V24.5H0V0.5Z" fill="white"/>
</mask>
<g mask="url(#mask0_972_14705)">
<path fill-rule="evenodd" clip-rule="evenodd" d="M12 24.4995C5.4 24.4995 0 19.0995 0 12.4395C0.06 5.83952 5.4 0.439519 12.06 0.499519C18.66 0.559519 24 5.89952 24 12.6195C23.94 19.1595 18.6 24.4995 12 24.4995Z" fill="#0090FF"/>
</g>
<path fill-rule="evenodd" clip-rule="evenodd" d="M13.1402 11.0595L12.7802 12.9795L16.2002 13.4595L15.9602 14.3595L12.6002 13.8795C12.3602 14.6595 12.2402 15.4995 11.9402 16.2195C11.6402 17.0595 11.3402 17.8995 10.9802 18.6795C10.5002 19.6995 9.66023 20.4195 8.52023 20.5995C7.86023 20.7195 7.14023 20.6595 6.60023 20.2395C6.42023 20.1195 6.24023 19.8795 6.24023 19.6995C6.24023 19.4595 6.36023 19.1595 6.54023 19.0395C6.66023 18.9795 6.96023 19.0395 7.14023 19.0995C7.32023 19.2795 7.50023 19.5195 7.62023 19.7595C7.98023 20.2395 8.46023 20.2995 8.94023 19.9395C9.48023 19.4595 9.78023 18.7995 9.96023 18.1395C10.3202 16.6995 10.6802 15.3195 10.9802 13.8795V13.6395L7.80023 13.1595L7.92023 12.2595L11.2202 12.7395L11.6402 10.8795L8.22023 10.3395L8.34023 9.37951L11.8802 9.85951C12.0002 9.49951 12.0602 9.19951 12.1802 8.89951C12.4802 7.81951 12.7802 6.73951 13.5002 5.77951C14.2202 4.81951 15.0602 4.21951 16.3202 4.27951C16.8602 4.27951 17.4002 4.45951 17.7602 4.87951C17.8202 4.93951 17.9402 5.05951 17.9402 5.17951C17.9402 5.41951 17.9402 5.71951 17.7602 5.89951C17.5202 6.07951 17.2202 6.01951 16.9802 5.77951C16.8002 5.59951 16.6802 5.41951 16.5002 5.23951C16.1402 4.75951 15.6002 4.69951 15.1802 5.11951C14.8802 5.41951 14.5802 5.83951 14.4002 6.25951C13.9802 7.51951 13.6802 8.83951 13.2602 10.1595L16.5602 10.6395L16.3202 11.5395L13.1402 11.0595Z" fill="white"/>
</g>
<defs>
<clipPath id="clip0_972_14705">
<rect width="24" height="24" fill="white" transform="translate(0 0.5)"/>
</clipPath>
</defs>
</svg>

<svg width="24" height="25" fill="none" xmlns="http://www.w3.org/2000/svg">
    <g clip-path="url(#a)">
        <mask id="b" style="mask-type:luminance" maskUnits="userSpaceOnUse" x="0" y="0" width="24" height="25">
            <path fill-rule="evenodd" clip-rule="evenodd" d="M0 .5h24v24H0V.5Z" fill="#fff"/>
        </mask>
        <g mask="url(#b)">
            <path fill-rule="evenodd" clip-rule="evenodd" d="M12 24.5c-6.6 0-12-5.4-12-12.06C.06 5.84 5.4.44 12.06.5 18.66.56 24 5.9 24 12.62c-.06 6.54-5.4 11.88-12 11.88Z" fill="#0090FF"/>
        </g>
        <path fill-rule="evenodd" clip-rule="evenodd" d="m13.14 11.06-.36 1.92 3.42.48-.24.9-3.36-.48c-.24.78-.36 1.62-.66 2.34-.3.84-.6 1.68-.96 2.46-.48 1.02-1.32 1.74-2.46 1.92-.66.12-1.38.06-1.92-.36-.18-.12-.36-.36-.36-.54 0-.24.12-.54.3-.66.12-.06.42 0 .6.06.18.18.36.42.48.66.36.48.84.54 1.32.18.54-.48.84-1.14 1.02-1.8.36-1.44.72-2.82 1.02-4.26v-.24l-3.18-.48.12-.9 3.3.48.42-1.86-3.42-.54.12-.96 3.54.48c.12-.36.18-.66.3-.96.3-1.08.6-2.16 1.32-3.12.72-.96 1.56-1.56 2.82-1.5.54 0 1.08.18 1.44.6.06.06.18.18.18.3 0 .24 0 .54-.18.72-.24.18-.54.12-.78-.12-.18-.18-.3-.36-.48-.54-.36-.48-.9-.54-1.32-.12-.3.3-.6.72-.78 1.14-.42 1.26-.72 2.58-1.14 3.9l3.3.48-.24.9-3.18-.48Z" fill="#fff"/>
    </g>
    <defs>
        <clipPath id="a">
            <path fill="#fff" d="M0 .5h24v24H0z"/>
        </clipPath>
    </defs>
</svg>
